!!!COM: Angelo Berardi
!!!OPR: Documenti Armonici
!!!ONB: Canon at the unison after a minim, CF below
!!!PPR: Giacomo Monti
!!!PDT: 1687
!!!PPP: Bologna
!!!ONB: Reprint ed., Bologna: Forni., 1970.  Bk II p. 89.
!!!ONB: Transcribed from Angelo Berardi, Documenti Armonici, 1687,
**kern	**kern	**kern
*CF	*guida	*conseq
*k[]	*k[]	*k[]
*M4/4	*M4/4	*M4/4
=1-	=1-	=1-
1A	4a	2r
.	4cc	.
.	4.cc	4a
.	.	4cc
.	8dd	.
=2	=2	=2
1c	4.ee	4.cc
.	8ff	8dd
.	4gg	4.ee
.	8g	.
.	8a	8ff
=3	=3	=3
1G	8b	4gg
.	8cc	.
.	2dd	8g
.	.	8a
.	.	8b
.	.	8cc
.	4d	[4dd
=4	=4	=4
1d	4.f	4dd]
.	.	4d
.	8g	.
.	4.a	4.f
.	8b	8g
=5	=5	=5
1A	4cc	4.a
.	4.c	.
.	.	8b
.	.	4cc
.	8d	.
.	8e	[4c
.	8f	.
=6	=6	=6
1e	2g	8c]
.	.	8d
.	.	8e
.	.	8f
.	4r	2g
.	4g	.
=7	=7	=7
1c	4r	4e
.	4g	4.ee
.	4e	.
.	.	8ff
.	[4ee	[4gg
=8	=8	=8
1e	8ee]	4gg]
.	8ff	.
.	2gg	4ee
.	.	4r
.	4ee	4ee
=9	=9	=9
1A	4r	4.cc
.	4ee	.
.	.	8b
.	4.cc	4.a
.	8b	8g
=10	=10	=10
1d	4.a	4.f
.	8g	8g
.	4.f	2a
.	8g	.
=11	=11	=11
1c	2a	4.e
.	.	8f
.	4.e	2g
.	8f	.
=12	=12	=12
1B-	2g	4.d
.	.	8e
.	4.d	2f
.	8e	.
=13	=13	=13
[1A	2f	4.c
.	.	8d
.	4c	4e
.	4d	[4d
=14	=14	=14
1A_	[1e	4d]
.	.	4c#
.	.	4.c#
.	.	8B
=15	=15	=15
1A_	1e_	[1c#
=16	=16	=16
1A]	1e]	1c#]
==	==	==
*-	*-	*-
!!!CDT: ~1636//-1694/4/9
!!!CNT: Italia
!!!ODT: <1687//
!!!YEP: David Huron and Denis Collins
!!!YEN: Canada
!!!AIN: vox; ?
!!!AST: polyphony
!!!RDT: 1995 July 3
!!!YED: 1995 August 31
!!!AFR: cantus firmus canon
!!!AMT: simple quadruple
!!!EEV: 1.0
